X:1
T:Title
%%score { ( 1 4 ) | ( 2 3 ) }
L:1/8
M:4/4
K:Bb
V:1 treble nm="Grand Piano"
V:4 treble 
V:2 bass 
V:3 bass 
V:1
 z4 z2[Q:1/4=100] [B,D][CE] | [DF]2 [Fd]2 [Ec]2 [Fd]2 | [DB]3 [EG] [DF]2 [DF]2 | G2 G2 F2 CE | %4
 D6 DE | [DF]2 [Fd]2 [Ec]2 [Fd]2 | [DB]3 [Ec] [Fd]2 [Fd]2 | [Fc]2 =Bc dc_BG |[M:3/4] F6 | %9
[M:1/4] F2 |[M:4/4] F2 Ac e2 A2 | [DB][CA][DB][Ec] [Fd]2 [Fd]2 | [Fd]2 [FA]2 cBAG | d6 [^Fd]2 | %14
 d3 d e2 [Fd]2 | d2 c2 B2 G2 | F2 B2 BcGA |[M:3/4] [DB]6 |] %18
V:2
 z4 z2 [B,,F,]2 | [B,,B,]2 [B,,B,]2 [F,A,]2 [F,A,]2 | [B,,B,]4 [B,,B,]2 [B,,B,]2 | %3
 [E,B,E]2 [E,B,E]2 [F,A,C]2 [F,A,]2 | z4 z2 .B,2 | [B,,B,]2 [B,,B,]2 [F,A,]2 [F,A,]2 | %6
 [B,,B,]4 [B,,B,]2 [B,,B,]2 | z4 z2 .G,2 |[M:3/4] [F,A,]6 |[M:1/4] F,2 | %10
[M:4/4] F,2 A,C E2 [F,CE]2 | [B,,B,]4 [B,,B,]2 [B,,B,]2 | [D,A,]2 [D,D]2 [G,DG]2 [E,G,_D]2 | %13
 [D,^F,D]6 [D,C]2 | [G,=B,F]3 [G,B,F] [G,B,F]2[K:bass] [G,,G,]2 | [C,G,]4 [E,G,E]2 [=E,B,_D]2 | %16
 [F,B,D]2 [F,DF]2 [C,C]2 [F,CE]2 |[M:3/4] [B,,B,]6 |] %18
V:3
 x8 | x8 | x8 | x8 | [B,,F,B,]6 [B,,F,]-[B,,F,C] | x8 | x8 | [C,A,]2 [C,A,]2 [C,G,]2 C,-[C,B,] | %8
[M:3/4] x6 |[M:1/4] x2 |[M:4/4] x8 | x8 | x8 | x8 | x6[K:bass] x2 | x8 | x8 |[M:3/4] x6 |] %18
V:4
 x8 | x8 | x8 | x8 | x8 | x8 | x8 | z2 F2 =E2 E2 |[M:3/4] x6 |[M:1/4] x2 |[M:4/4] x8 | x8 | x8 | %13
 x8 | x8 | E4 z4 | z4 =E2 z2 |[M:3/4] x6 |] %18

